; generated by PrusaSlicer 2.5.0+win64 on 2022-11-09 at 05:25:37 UTC


;
;
; 

; external perimeters extrusion width = 0.45mm
; perimeters extrusion width = 0.45mm
; infill extrusion width = 0.45mm
; solid infill extrusion width = 0.45mm
; top infill extrusion width = 0.40mm
; first layer extrusion width = 0.42mm

M73 P0 R76
M73 Q0 S77
M201 X1000 Y1000 Z200 E5000 ; sets maximum accelerations, mm/sec^2
M203 X200 Y200 Z12 E120 ; sets maximum feedrates, mm / sec
M204 P1250 R1250 T1250 ; sets acceleration (P, T) and retract acceleration (R), mm/sec^2
M205 X8.00 Y8.00 Z0.40 E4.50 ; sets the jerk limits, mm/sec
M205 S0 T0 ; sets the minimum extruding and travel feed rate, mm/sec
M107
;TYPE:Custom
M862.3 P "MK3" ; printer model check
M862.1 P0.4 ; nozzle diameter check
M115 U3.11.0 ; tell printer latest fw version
G90 ; use absolute coordinates
M83 ; extruder relative mode
M104 S215 ; set extruder temp
M140 S60 ; set bed temp
M190 S60 ; wait for bed temp
M109 S215 ; wait for extruder temp
G28 W ; home all without mesh bed level
G80 ; mesh bed leveling

G1 Z0.2 F720
G1 Y-3 F1000 ; go outside print area
G92 E0
G1 X60 E9 F1000 ; intro line
G1 X100 E12.5 F1000 ; intro line

G92 E0
M221 S95

; Don't change E values below. Excessive value can damage the printer.
M907 E430 ; set extruder motor current
G21 ; set units to millimeters
G90 ; use absolute coordinates
M83 ; use relative distances for extrusion
M900 K0.05 ; Filament gcode LA 1.5
M900 K30 ; Filament gcode LA 1.0
M107
;LAYER_CHANGE
;Z:0.2
;HEIGHT:0.2
;BEFORE_LAYER_CHANGE
G92 E0.0
;0.2


G1 E-.8 F2100
G1 Z.4 F720
;AFTER_LAYER_CHANGE
;0.2
G1 X118.582 Y70.505 F10800
G1 Z.2 F720
G1 E.8 F2100
M204 S800
;TYPE:Skirt/Brim
;WIDTH:0.42
G1 F1200
G1 X119.628 Y69.628 E.04278
G1 X120.567 Y69.435 E.03008
G1 X180.567 Y69.435 E1.88126
G1 X181.874 Y69.826 E.04278
G1 X182.751 Y70.872 E.04278
G1 X182.944 Y71.812 E.03008
G1 X182.944 Y160.812 E2.79053
G1 X182.553 Y162.119 E.04278
G1 X181.507 Y162.995 E.04278
G1 X180.567 Y163.189 E.03008
G1 X120.567 Y163.189 E1.88126
G1 X119.26 Y162.797 E.04278
G1 X118.384 Y161.752 E.04278
G1 X118.19 Y160.812 E.03008
G1 X118.19 Y71.812 E2.79053
G1 X118.565 Y70.562 E.0409
M204 S1000
; printing object Bot for RaspPi4.stl id:0 copy 0
;WIPE_START
G1 F8640
G1 X119.628 Y69.628 E-.32671
G1 X120.567 Y69.435 E-.22155
G1 X121.484 Y69.435 E-.21174
;WIPE_END
G1 E-.04 F2100
G1 Z.6 F720
G1 X157.829 Y158.702 F10800
G1 Z.2 F720
G1 E.8 F2100
M204 S800
;TYPE:Perimeter
;WIDTH:0.419999
G1 F1200
G1 X157.766 Y158.486 E.00704
G1 X157.549 Y158.288 E.00921
G1 X157.289 Y158.225 E.00839
G1 X143.846 Y158.225 E.42149
G1 X143.586 Y158.288 E.00839
G1 X143.369 Y158.486 E.00921
G1 X143.28 Y158.79 E.00993
G1 X143.28 Y160.025 E.0387
G1 X121.354 Y160.025 E.68747
G1 X121.354 Y72.599 E2.74117
G1 X179.78 Y72.599 E1.8319
G1 X179.78 Y160.025 E2.74117
G1 X157.854 Y160.025 E.68747
G1 X157.845 Y158.759 E.03968
M204 S1000
G1 X157.477 Y158.79 F10800
M204 S800
;TYPE:External perimeter
G1 F1200
G1 X157.429 Y158.665 E.00422
G1 X157.289 Y158.602 E.00483
G1 X143.846 Y158.602 E.42149
G1 X143.721 Y158.649 E.00418
G1 X143.657 Y158.79 E.00487
G1 X143.657 Y160.402 E.05053
G1 X120.977 Y160.402 E.71111
G1 X120.977 Y72.222 E2.76482
G1 X180.157 Y72.222 E1.85554
M73 Q0 S76
G1 X180.157 Y160.402 E2.76482
M73 P1 R76
M73 Q1 S76
G1 X157.477 Y160.402 E.71111
G1 X157.477 Y158.85 E.04864
M204 S1000
G1 X157.518 Y158.662 F10800
;WIPE_START
G1 F8640
G1 X157.429 Y158.665 E-.04428
G1 X157.289 Y158.602 E-.03555
G1 X154.343 Y158.602 E-.68017
;WIPE_END
G1 E-.04 F2100
G1 Z.6 F720
G1 X176.697 Y98.498 F10800
G1 Z.2 F720
G1 E.8 F2100
M204 S800
;TYPE:Perimeter
G1 F1200
G1 X176.478 Y98.763 E.01079
G1 X175.887 Y99.162 E.02235
G1 X175.507 Y99.29 E.01257
G1 X174.773 Y99.308 E.02304
G1 X174.332 Y99.207 E.01417
G1 X173.747 Y98.837 E.02171
G1 X173.424 Y98.506 E.01449
G1 X173.079 Y97.688 E.02782
G1 X173.036 Y97.485 E.0065
G1 X173.184 Y96.571 E.02905
G1 X173.299 Y96.315 E.00879
G1 X173.858 Y95.684 E.02645
G1 X174.081 Y95.53 E.00847
G1 X174.889 Y95.297 E.0264
G1 X175.254 Y95.288 E.01143
G1 X176.018 Y95.518 E.02502
G1 X176.263 Y95.676 E.00914
G1 X176.799 Y96.266 E.02499
G1 X176.924 Y96.489 E.008
G1 X177.018 Y96.835 E.01125
G1 X177.094 Y97.365 E.0168
G1 X177.08 Y97.596 E.00724
G1 X176.981 Y97.929 E.01091
G1 X176.736 Y98.452 E.0181
M204 S1000
G1 X176.376 Y98.311 F10800
M204 S800
;TYPE:External perimeter
G1 F1200
G1 X176.172 Y98.53 E.00941
G1 X175.683 Y98.845 E.01822
G1 X175.364 Y98.931 E.01037
G1 X174.773 Y98.931 E.01855
G1 X174.465 Y98.85 E.00998
G1 X173.95 Y98.52 E.01917
G1 X173.737 Y98.29 E.00983
G1 X173.428 Y97.544 E.02533
G1 X173.413 Y97.476 E.00217
G1 X173.556 Y96.635 E.02675
G1 X173.6 Y96.542 E.00324
G1 X174.14 Y95.934 E.0255
G1 X174.229 Y95.878 E.0033
G1 X174.993 Y95.659 E.02492
G1 X175.272 Y95.673 E.00874
G1 X175.902 Y95.877 E.02078
G1 X176.52 Y96.519 E.02795
G1 X176.645 Y96.889 E.01222
G1 X176.721 Y97.419 E.0168
G1 X176.638 Y97.773 E.01139
G1 X176.413 Y98.264 E.01695
M204 S1000
G1 X176.5 Y98.584 F10800
;WIPE_START
G1 F8640
G1 X176.172 Y98.53 E-.083
G1 X175.683 Y98.845 E-.13414
G1 X175.364 Y98.931 E-.07635
G1 X174.773 Y98.931 E-.13659
G1 X174.465 Y98.85 E-.07349
G1 X173.95 Y98.52 E-.14116
G1 X173.737 Y98.29 E-.07239
G1 X173.666 Y98.119 E-.04289
;WIPE_END
G1 E-.04 F2100
G1 Z.6 F720
G1 X126.129 Y95.285 F10800
G1 Z.2 F720
G1 E.8 F2100
M204 S800
;TYPE:Perimeter
G1 F1200
G1 X126.186 Y95.281 E.00177
G1 X127.009 Y95.515 E.02685
G1 X127.253 Y95.66 E.0089
G1 X127.818 Y96.291 E.02653
G1 X127.942 Y96.523 E.00825
G1 X128.093 Y97.39 E.02759
G1 X128.079 Y97.619 E.00719
G1 X127.997 Y97.891 E.00891
G1 X127.739 Y98.455 E.01945
G1 X127.479 Y98.764 E.01265
G1 X126.875 Y99.167 E.02277
G1 X126.442 Y99.305 E.01428
G1 X125.769 Y99.31 E.02107
G1 X125.403 Y99.231 E.01177
G1 X124.76 Y98.849 E.02343
G1 X124.495 Y98.599 E.01142
G1 X124.383 Y98.437 E.00619
G1 X124.151 Y97.929 E.01749
G1 X124.035 Y97.444 E.01564
G1 X124.194 Y96.542 E.02874
G1 X124.333 Y96.264 E.00974
G1 X124.875 Y95.673 E.02514
G1 X125.118 Y95.517 E.00906
G1 X125.747 Y95.314 E.02072
G1 X126.069 Y95.29 E.01013
M204 S1000
G1 X126.283 Y95.698 F10800
M204 S800
;TYPE:External perimeter
G1 F1200
G1 X126.905 Y95.878 E.02028
G1 X126.993 Y95.933 E.00327
G1 X127.536 Y96.542 E.02559
G1 X127.63 Y96.819 E.00917
G1 X127.719 Y97.443 E.01977
G1 X127.654 Y97.734 E.00935
G1 X127.396 Y98.298 E.01945
G1 X127.183 Y98.521 E.00965
G1 X126.671 Y98.85 E.01908
G1 X126.364 Y98.933 E.00999
G1 X125.769 Y98.933 E.01864
G1 X125.45 Y98.844 E.01039
G1 X124.964 Y98.531 E.01812
G1 X124.726 Y98.28 E.01086
G1 X124.494 Y97.773 E.01749
G1 X124.415 Y97.41 E.01165
G1 X124.565 Y96.611 E.02546
G1 X124.611 Y96.519 E.00325
G1 X125.153 Y95.928 E.02514
G1 X125.863 Y95.673 E.02365
G1 X126.14 Y95.657 E.00869
G1 X126.225 Y95.681 E.0028
M204 S1000
M73 P1 R75
G1 X126.55 Y95.4 F10800
;WIPE_START
G1 F8640
G1 X126.905 Y95.878 E-.16323
G1 X126.993 Y95.933 E-.02409
G1 X127.536 Y96.542 E-.18844
G1 X127.63 Y96.819 E-.06755
G1 X127.719 Y97.443 E-.14559
G1 X127.654 Y97.734 E-.06885
G1 X127.47 Y98.137 E-.10225
;WIPE_END
G1 E-.04 F2100
G1 Z.6 F720
G1 X127.856 Y154.361 F10800
G1 Z.2 F720
G1 E.8 F2100
M204 S800
;TYPE:Perimeter
G1 F1200
G1 X127.94 Y154.516 E.00553
G1 X128.093 Y155.389 E.02778
G1 X128.08 Y155.614 E.00706
G1 X128.001 Y155.878 E.00865
G1 X127.736 Y156.459 E.02003
G1 X127.501 Y156.746 E.01161
G1 X126.861 Y157.173 E.02411
G1 X126.704 Y157.242 E.0054
G1 X126.405 Y157.305 E.00958
G1 X125.749 Y157.314 E.02056
G1 X125.308 Y157.193 E.01436
G1 X124.816 Y156.894 E.01803
G1 X124.491 Y156.591 E.01395
G1 X124.372 Y156.423 E.00645
G1 X124.164 Y155.967 E.01571
G1 X124.035 Y155.446 E.01684
G1 X124.189 Y154.553 E.0284
G1 X124.326 Y154.276 E.0097
G1 X124.868 Y153.676 E.02535
G1 X125.132 Y153.512 E.00975
G1 X125.912 Y153.289 E.02544
G1 X126.162 Y153.275 E.00786
G1 X127.005 Y153.513 E.02747
G1 X127.252 Y153.66 E.00899
G1 X127.827 Y154.309 E.02718
M204 S1000
G1 X127.55 Y154.586 F10800
M204 S800
;TYPE:External perimeter
G1 F1200
G1 X127.63 Y154.819 E.00771
G1 X127.719 Y155.442 E.01976
G1 X127.658 Y155.721 E.00896
G1 X127.393 Y156.303 E.02003
G1 X127.201 Y156.506 E.00875
G1 X126.658 Y156.855 E.02027
G1 X126.4 Y156.928 E.00838
G1 X125.742 Y156.937 E.02064
G1 X125.397 Y156.819 E.01144
G1 X124.893 Y156.457 E.01946
G1 X124.716 Y156.266 E.00818
G1 X124.507 Y155.81 E.01571
G1 X124.415 Y155.412 E.01283
G1 X124.56 Y154.621 E.0252
G1 X124.605 Y154.529 E.00323
G1 X125.148 Y153.929 E.02535
G1 X125.236 Y153.875 E.00325
G1 X126.016 Y153.651 E.02544
G1 X126.12 Y153.651 E.00326
G1 X126.901 Y153.876 E.02549
G1 X126.989 Y153.931 E.00327
G1 X127.528 Y154.531 E.02527
M204 S1000
G1 X127.796 Y154.6 F10800
;WIPE_START
G1 F8640
G1 X127.63 Y154.819 E-.07047
G1 X127.719 Y155.442 E-.14553
G1 X127.658 Y155.721 E-.06595
G1 X127.393 Y156.303 E-.14752
G1 X127.201 Y156.506 E-.06445
G1 X126.658 Y156.855 E-.14928
G1 X126.4 Y156.928 E-.06173
G1 X126.162 Y156.931 E-.05507
;WIPE_END
G1 E-.04 F2100
G1 Z.6 F720
G1 X175.41 Y157.305 F10800
G1 Z.2 F720
G1 E.8 F2100
M204 S800
;TYPE:Perimeter
G1 F1200
G1 X174.73 Y157.305 E.02135
G1 X174.431 Y157.242 E.00958
G1 X173.73 Y156.823 E.02562
G1 X173.512 Y156.623 E.00927
G1 X173.391 Y156.44 E.00688
G1 X173.079 Y155.685 E.02561
G1 X173.037 Y155.461 E.00714
G1 X173.184 Y154.568 E.02838
G1 X173.298 Y154.312 E.0088
G1 X173.865 Y153.679 E.02663
G1 X174.079 Y153.531 E.00818
G1 X174.911 Y153.289 E.02718
G1 X175.129 Y153.27 E.00683
G1 X176.003 Y153.512 E.02844
G1 X176.267 Y153.676 E.00975
G1 X176.809 Y154.276 E.02535
G1 X176.937 Y154.511 E.00839
G1 X177.094 Y155.365 E.02723
G1 X177.092 Y155.544 E.00559
G1 X176.97 Y155.967 E.01381
G1 X176.762 Y156.423 E.01571
G1 X176.409 Y156.822 E.01672
G1 X175.942 Y157.136 E.01766
G1 X175.47 Y157.305 E.0157
M204 S1000
G1 X175.628 Y156.861 F10800
M204 S800
;TYPE:External perimeter
G1 F1200
G1 X175.39 Y156.937 E.00784
G1 X174.734 Y156.928 E.02056
G1 X174.477 Y156.855 E.00838
G1 X173.933 Y156.506 E.02027
G1 X173.739 Y156.296 E.00896
G1 X173.428 Y155.541 E.02561
G1 X173.416 Y155.437 E.00328
G1 X173.555 Y154.632 E.02562
G1 X173.601 Y154.538 E.00327
G1 X174.145 Y153.931 E.02558
G1 X174.234 Y153.876 E.00327
G1 X175.016 Y153.651 E.02551
G1 X175.119 Y153.651 E.00326
G1 X175.899 Y153.875 E.02543
G1 X175.987 Y153.929 E.00325
G1 X176.529 Y154.529 E.02535
G1 X176.645 Y154.891 E.01192
G1 X176.721 Y155.419 E.01672
G1 X176.72 Y155.478 E.00186
G1 X176.627 Y155.81 E.0108
G1 X176.419 Y156.266 E.01571
G1 X176.115 Y156.577 E.01365
G1 X175.686 Y156.843 E.01582
M204 S1000
G1 X175.603 Y157.109 F10800
;WIPE_START
G1 F8640
G1 X175.39 Y156.937 E-.07159
G1 X174.734 Y156.928 E-.15142
G1 X174.477 Y156.855 E-.06173
G1 X173.933 Y156.506 E-.14927
G1 X173.739 Y156.296 E-.06598
G1 X173.428 Y155.541 E-.18858
G1 X173.416 Y155.437 E-.02414
G1 X173.451 Y155.235 E-.04728
;WIPE_END
G1 E-.04 F2100
G1 Z.6 F720
G1 X178.903 Y72.712 F10800
G1 Z.2 F720
G1 E.8 F2100
M204 S800
;TYPE:Solid infill
;WIDTH:0.421104
G1 F1200
G1 X179.498 Y73.307 E.02646
G1 X179.498 Y73.842 E.01682
G1 X178.537 Y72.882 E.0427
G1 X178.003 Y72.882 E.01682
G1 X179.498 Y74.377 E.06648
G1 X179.498 Y74.911 E.01682
G1 X177.468 Y72.882 E.09027
G1 X176.933 Y72.882 E.01682
G1 X179.498 Y75.446 E.11405
G1 X179.498 Y75.981 E.01682
G1 X176.398 Y72.882 E.13784
G1 X175.863 Y72.882 E.01682
G1 X179.498 Y76.516 E.16162
G1 X179.498 Y77.051 E.01682
G1 X175.328 Y72.882 E.18541
G1 X174.794 Y72.882 E.01682
G1 X179.498 Y77.586 E.20919
G1 X179.498 Y78.12 E.01682
G1 X174.259 Y72.882 E.23297
G1 X173.724 Y72.882 E.01682
G1 X179.498 Y78.655 E.25676
G1 X179.498 Y79.19 E.01682
G1 X173.189 Y72.882 E.28054
G1 X172.654 Y72.882 E.01682
G1 X179.498 Y79.725 E.30433
G1 X179.498 Y80.26 E.01682
G1 X172.119 Y72.882 E.32811
G1 X171.585 Y72.882 E.01682
G1 X179.498 Y80.795 E.3519
G1 X179.498 Y81.329 E.01682
G1 X171.05 Y72.882 E.37568
G1 X170.515 Y72.882 E.01682
G1 X179.498 Y81.864 E.39947
G1 X179.498 Y82.399 E.01682
G1 X169.98 Y72.882 E.42325
G1 X169.445 Y72.882 E.01682
G1 X179.498 Y82.934 E.44704
G1 X179.498 Y83.469 E.01682
G1 X168.91 Y72.882 E.47082
G1 X168.376 Y72.882 E.01682
G1 X179.498 Y84.004 E.49461
G1 X179.498 Y84.538 E.01682
G1 X167.841 Y72.882 E.51839
G1 X167.306 Y72.882 E.01682
G1 X179.498 Y85.073 E.54218
G1 X179.498 Y85.608 E.01682
G1 X166.771 Y72.882 E.56596
G1 X166.236 Y72.882 E.01682
G1 X179.498 Y86.143 E.58975
G1 X179.498 Y86.678 E.01682
G1 X165.701 Y72.882 E.61353
G1 X165.167 Y72.882 E.01682
G1 X179.498 Y87.213 E.63732
G1 X179.498 Y87.747 E.01682
G1 X164.632 Y72.882 E.6611
G1 X164.097 Y72.882 E.01682
G1 X179.498 Y88.282 E.68489
G1 X179.498 Y88.817 E.01682
G1 X163.562 Y72.882 E.70867
G1 X163.027 Y72.882 E.01682
G1 X179.498 Y89.352 E.73246
G1 X179.498 Y89.887 E.01682
G1 X162.492 Y72.882 E.75624
G1 X161.958 Y72.882 E.01682
G1 X179.498 Y90.422 E.78003
G1 X179.498 Y90.956 E.01682
G1 X161.423 Y72.882 E.80381
G1 X160.888 Y72.882 E.01682
G1 X179.498 Y91.491 E.8276
G1 X179.498 Y92.026 E.01682
G1 X160.353 Y72.882 E.85138
G1 X159.818 Y72.882 E.01682
G1 X179.498 Y92.561 E.87517
G1 X179.498 Y93.096 E.01682
G1 X159.283 Y72.882 E.89895
G1 X158.749 Y72.882 E.01682
G1 X179.498 Y93.631 E.92274
G1 X179.498 Y94.165 E.01682
M73 P2 R75
M73 Q2 S76
G1 X158.214 Y72.882 E.94652
G1 X157.679 Y72.882 E.01682
G1 X179.498 Y94.7 E.9703
G1 X179.498 Y95.235 E.01682
G1 X157.144 Y72.882 E.99409
G1 X156.609 Y72.882 E.01682
G1 X179.498 Y95.77 E1.01787
G1 X179.498 Y96.305 E.01682
G1 X156.074 Y72.882 E1.04166
G1 X155.54 Y72.882 E.01682
M73 Q2 S75
G1 X179.498 Y96.84 E1.06544
G1 X179.498 Y97.374 E.01682
G1 X155.005 Y72.882 E1.08923
G1 X154.47 Y72.882 E.01682
G1 X179.498 Y97.909 E1.11301
G1 X179.498 Y98.444 E.01682
G1 X153.935 Y72.882 E1.1368
G1 X153.4 Y72.882 E.01682
G1 X175.606 Y95.087 E.98752
G1 X176.111 Y95.25 E.01668
G1 X176.292 Y95.334 E.00629
G1 X176.468 Y95.481 E.0072
G1 X177.016 Y96.084 E.02561
G1 X177.193 Y96.401 E.01141
G1 X177.294 Y96.775 E.01219
G1 X179.498 Y98.979 E.09801
G1 X179.498 Y99.514 E.01682
G1 X177.375 Y97.391 E.09441
G1 X177.371 Y97.589 E.00624
G1 X177.302 Y97.853 E.00858
G1 X179.498 Y100.049 E.09764
G1 X179.498 Y100.583 E.01682
G1 X177.147 Y98.233 E.10451
G1 X176.977 Y98.598 E.01266
G1 X179.498 Y101.118 E.11207
G1 X179.498 Y101.653 E.01682
G1 X176.736 Y98.892 E.1228
G1 X176.536 Y99.081 E.00866
G1 X176.447 Y99.138 E.00331
G1 X179.498 Y102.188 E.13564
G1 X179.498 Y102.723 E.01682
G1 X176.122 Y99.347 E.15012
G1 X176.034 Y99.404 E.0033
G1 X175.757 Y99.517 E.0094
G1 X179.498 Y103.258 E.16635
G1 X179.498 Y103.792 E.01682
G1 X175.296 Y99.59 E.18687
G1 X174.756 Y99.586 E.01697
G1 X179.667 Y104.497 E.21842
M204 S1000
;WIPE_START
G1 F8640
G1 X177.34 Y102.17 E-.76
;WIPE_END
G1 E-.04 F2100
G1 Z.6 F720
G1 X175.156 Y95.172 F10800
G1 Z.2 F720
G1 E.8 F2100
M204 S800
G1 F1200
G1 X152.865 Y72.882 E.99127
G1 X152.331 Y72.882 E.01682
G1 X174.551 Y95.102 E.98816
G1 X174.133 Y95.219 E.01363
G1 X151.796 Y72.882 E.99339
G1 X151.261 Y72.882 E.01682
M73 P2 R74
G1 X173.77 Y95.39 E1.00099
G1 X173.651 Y95.491 E.00489
G1 X173.503 Y95.658 E.00703
G1 X150.726 Y72.882 E1.01292
G1 X150.191 Y72.882 E.01682
G1 X173.252 Y95.942 E1.02553
G1 X173.075 Y96.141 E.00837
G1 X173.015 Y96.24 E.00364
G1 X149.656 Y72.882 E1.03878
G1 X149.122 Y72.882 E.01682
G1 X172.885 Y96.645 E1.05678
G1 X172.806 Y97.101 E.01455
G1 X148.587 Y72.882 E1.07705
G1 X148.052 Y72.882 E.01682
G1 X173.028 Y97.858 E1.11072
M204 S1000
;WIPE_START
G1 F8640
G1 X170.701 Y95.53 E-.76
;WIPE_END
G1 E-.04 F2100
G1 Z.6 F720
G1 X179.667 Y105.032 F10800
G1 Z.2 F720
G1 E.8 F2100
M204 S800
G1 F1200
G1 X147.517 Y72.882 E1.42976
G1 X146.982 Y72.882 E.01682
G1 X179.498 Y105.397 E1.446
G1 X179.498 Y105.932 E.01682
G1 X146.447 Y72.882 E1.46979
G1 X145.913 Y72.882 E.01682
G1 X179.498 Y106.467 E1.49357
G1 X179.498 Y107.001 E.01682
M73 P3 R74
M73 Q3 S75
G1 X145.378 Y72.882 E1.51736
G1 X144.843 Y72.882 E.01682
G1 X179.498 Y107.536 E1.54114
G1 X179.498 Y108.071 E.01682
G1 X144.308 Y72.882 E1.56493
G1 X143.773 Y72.882 E.01682
G1 X179.498 Y108.606 E1.58871
G1 X179.498 Y109.141 E.01682
G1 X143.238 Y72.882 E1.6125
G1 X142.704 Y72.882 E.01682
G1 X179.498 Y109.676 E1.63628
G1 X179.498 Y110.21 E.01682
G1 X142.169 Y72.882 E1.66007
