; generated by PrusaSlicer 2.5.0+win64 on 2022-11-09 at 05:27:51 UTC


;
;
; 

; external perimeters extrusion width = 0.45mm
; perimeters extrusion width = 0.45mm
; infill extrusion width = 0.45mm
; solid infill extrusion width = 0.45mm
; top infill extrusion width = 0.40mm
; first layer extrusion width = 0.42mm

M73 P0 R141
M73 Q0 S143
M201 X1000 Y1000 Z200 E5000 ; sets maximum accelerations, mm/sec^2
M203 X200 Y200 Z12 E120 ; sets maximum feedrates, mm / sec
M204 P1250 R1250 T1250 ; sets acceleration (P, T) and retract acceleration (R), mm/sec^2
M205 X8.00 Y8.00 Z0.40 E4.50 ; sets the jerk limits, mm/sec
M205 S0 T0 ; sets the minimum extruding and travel feed rate, mm/sec
M107
;TYPE:Custom
M862.3 P "MK3" ; printer model check
M862.1 P0.4 ; nozzle diameter check
M115 U3.11.0 ; tell printer latest fw version
G90 ; use absolute coordinates
M83 ; extruder relative mode
M104 S215 ; set extruder temp
M140 S60 ; set bed temp
M190 S60 ; wait for bed temp
M109 S215 ; wait for extruder temp
G28 W ; home all without mesh bed level
G80 ; mesh bed leveling

G1 Z0.2 F720
G1 Y-3 F1000 ; go outside print area
G92 E0
G1 X60 E9 F1000 ; intro line
G1 X100 E12.5 F1000 ; intro line

G92 E0
M221 S95

; Don't change E values below. Excessive value can damage the printer.
M907 E430 ; set extruder motor current
G21 ; set units to millimeters
G90 ; use absolute coordinates
M83 ; use relative distances for extrusion
M900 K0.05 ; Filament gcode LA 1.5
M900 K30 ; Filament gcode LA 1.0
M107
;LAYER_CHANGE
;Z:0.2
;HEIGHT:0.2
;BEFORE_LAYER_CHANGE
G92 E0.0
;0.2


G1 E-.8 F2100
G1 Z.4 F720
;AFTER_LAYER_CHANGE
;0.2
G1 X93.015 Y59.193 F10800
G1 Z.2 F720
G1 E.8 F2100
M204 S800
;TYPE:Skirt/Brim
;WIDTH:0.42
G1 F1200
G1 X94.06 Y58.317 E.04278
G1 X95 Y58.123 E.03008
G1 X155 Y58.123 E1.88126
G1 X156.307 Y58.515 E.04278
G1 X157.183 Y59.56 E.04278
G1 X157.377 Y60.5 E.03008
G1 X157.377 Y149.5 E2.79053
G1 X156.985 Y150.807 E.04278
G1 X155.94 Y151.683 E.04278
G1 X155 Y151.877 E.03008
G1 X95 Y151.877 E1.88126
G1 X93.693 Y151.485 E.04278
G1 X92.817 Y150.44 E.04278
G1 X92.623 Y149.5 E.03008
G1 X92.623 Y60.5 E2.79053
G1 X92.997 Y59.25 E.0409
M204 S1000
; printing object Top for RaspPi4.stl id:0 copy 0
;WIPE_START
G1 F8640
G1 X94.06 Y58.317 E-.32671
G1 X95 Y58.123 E-.22155
G1 X95.917 Y58.123 E-.21174
;WIPE_END
G1 E-.04 F2100
G1 Z.6 F720
G1 X98.277 Y81.192 F10800
G1 Z.2 F720
G1 E.8 F2100
M204 S800
;TYPE:Perimeter
;WIDTH:0.419999
G1 F1200
G1 X98.305 Y81.336 E.00459
G1 X98.45 Y81.542 E.00791
G1 X98.829 Y81.687 E.0127
G1 X115.671 Y81.687 E.5281
G1 X115.763 Y81.68 E.00289
G1 X116.03 Y81.559 E.00916
G1 X116.197 Y81.331 E.00885
G1 X116.237 Y81.121 E.00671
G1 X116.237 Y61.287 E.62189
G1 X118.313 Y61.287 E.06509
G1 X118.313 Y76.921 E.4902
G1 X118.379 Y77.188 E.0086
G1 X118.539 Y77.374 E.00769
G1 X118.72 Y77.464 E.00634
G1 X118.879 Y77.487 E.00502
G1 X133.121 Y77.487 E.44658
G1 X133.236 Y77.475 E.00361
G1 X133.501 Y77.341 E.00932
G1 X133.652 Y77.117 E.00847
G1 X133.687 Y76.921 E.00622
G1 X133.687 Y61.287 E.4902
G1 X136.313 Y61.287 E.08233
G1 X136.313 Y76.921 E.4902
G1 X136.315 Y76.971 E.00155
G1 X136.423 Y77.257 E.00959
G1 X136.639 Y77.434 E.00877
G1 X136.879 Y77.487 E.00768
G1 X151.121 Y77.487 E.44658
G1 X151.325 Y77.449 E.00649
G1 X151.491 Y77.349 E.00608
G1 X151.631 Y77.167 E.00719
G1 X151.687 Y76.921 E.00791
G1 X151.687 Y61.287 E.4902
G1 X154.213 Y61.287 E.0792
G1 X154.213 Y148.713 E2.74117
G1 X95.787 Y148.713 E1.8319
G1 X95.787 Y61.287 E2.74117
G1 X98.263 Y61.287 E.07763
M73 P0 R140
G1 X98.265 Y81.133 E.62226
M204 S1000
G1 X98.64 Y81.121 F10800
M204 S800
;TYPE:External perimeter
G1 F1200
G1 X98.691 Y81.25 E.00433
G1 X98.829 Y81.31 E.00472
G1 X115.671 Y81.31 E.5281
G1 X115.791 Y81.267 E.00398
G1 X115.86 Y81.121 E.00506
G1 X115.86 Y60.91 E.63372
G1 X118.69 Y60.91 E.08873
G1 X118.69 Y76.921 E.50203
G1 X118.765 Y77.072 E.00529
G1 X118.879 Y77.11 E.00374
G1 X133.121 Y77.11 E.44658
G1 X133.248 Y77.061 E.00425
G1 X133.31 Y76.921 E.00479
G1 X133.31 Y60.91 E.50203
G1 X136.69 Y60.91 E.10598
G1 X136.69 Y76.921 E.50203
G1 X136.752 Y77.061 E.00479
G1 X136.879 Y77.11 E.00425
G1 X151.121 Y77.11 E.44658
G1 X151.245 Y77.064 E.00412
G1 X151.31 Y76.921 E.00492
G1 X151.31 Y60.91 E.50203
G1 X154.59 Y60.91 E.10284
G1 X154.59 Y149.09 E2.76482
G1 X95.41 Y149.09 E1.85554
M73 Q0 S142
G1 X95.41 Y60.91 E2.76482
G1 X98.64 Y60.91 E.10127
G1 X98.64 Y81.061 E.63183
M204 S1000
G1 X98.546 Y81.223 F10800
;WIPE_START
G1 F8640
G1 X98.691 Y81.25 E-.04504
G1 X98.829 Y81.31 E-.03476
G1 X101.774 Y81.31 E-.68019
;WIPE_END
G1 E-.04 F2100
G1 Z.6 F720
G1 X152.523 Y86.053 F10800
G1 Z.2 F720
G1 E.8 F2100
M204 S800
;TYPE:Perimeter
G1 F1200
G1 X152.501 Y86.239 E.00588
G1 X152.176 Y87.238 E.03294
G1 X152.058 Y87.442 E.00737
G1 X151.355 Y88.222 E.03294
G1 X151.165 Y88.361 E.00737
G1 X150.205 Y88.788 E.03294
G1 X149.975 Y88.837 E.00737
G1 X148.925 Y88.837 E.03294
G1 X148.695 Y88.788 E.00737
G1 X147.735 Y88.361 E.03294
G1 X147.545 Y88.222 E.00737
G1 X146.842 Y87.442 E.03294
G1 X146.724 Y87.238 E.00737
G1 X146.4 Y86.239 E.03294
G1 X146.375 Y86.005 E.00737
G1 X146.485 Y84.96 E.03294
G1 X146.557 Y84.736 E.00737
G1 X147.083 Y83.827 E.03294
G1 X147.24 Y83.652 E.00737
G1 X148.09 Y83.034 E.03294
G1 X148.305 Y82.939 E.00737
G1 X149.332 Y82.72 E.03294
G1 X149.568 Y82.72 E.00737
G1 X150.595 Y82.939 E.03294
G1 X150.81 Y83.034 E.00737
G1 X151.66 Y83.652 E.03294
G1 X151.817 Y83.827 E.00737
G1 X152.343 Y84.736 E.03294
G1 X152.415 Y84.96 E.00737
G1 X152.524 Y85.993 E.03256
M204 S1000
G1 X152.143 Y85.976 F10800
M204 S800
;TYPE:External perimeter
G1 F1200
G1 X152.142 Y86.122 E.00459
G1 X151.817 Y87.121 E.03294
G1 X151.778 Y87.189 E.00246
G1 X151.075 Y87.97 E.03294
G1 X151.012 Y88.016 E.00246
G1 X150.052 Y88.443 E.03294
G1 X149.525 Y88.46 E.01653
G1 X148.925 Y88.46 E.01882
G1 X148.848 Y88.443 E.00246
G1 X147.888 Y88.016 E.03294
G1 X147.825 Y87.97 E.00246
G1 X147.122 Y87.189 E.03294
G1 X147.083 Y87.121 E.00246
G1 X146.758 Y86.122 E.03294
G1 X146.75 Y86.044 E.00246
G1 X146.86 Y85 E.03294
G1 X146.884 Y84.925 E.00246
G1 X147.409 Y84.015 E.03294
G1 X147.462 Y83.957 E.00246
G1 X148.312 Y83.339 E.03294
G1 X148.383 Y83.308 E.00246
G1 X149.411 Y83.089 E.03294
G1 X149.489 Y83.089 E.00246
G1 X150.517 Y83.308 E.03294
G1 X150.588 Y83.339 E.00246
G1 X151.438 Y83.957 E.03294
G1 X151.491 Y84.015 E.00246
G1 X152.016 Y84.925 E.03294
G1 X152.04 Y85 E.00246
G1 X152.137 Y85.916 E.0289
M204 S1000
G1 X152.272 Y86.045 F10800
;WIPE_START
G1 F8640
G1 X152.142 Y86.122 E-.04761
G1 X151.817 Y87.121 E-.24257
G1 X151.778 Y87.189 E-.0181
G1 X151.075 Y87.97 E-.24257
G1 X151.012 Y88.016 E-.0181
G1 X150.256 Y88.353 E-.19104
;WIPE_END
G1 E-.04 F2100
G1 Z.6 F720
G1 X151.273 Y103.293 F10800
G1 Z.2 F720
G1 E.8 F2100
M204 S800
;TYPE:Perimeter
G1 F1200
G1 X151.244 Y103.439 E.00467
G1 X151.131 Y103.612 E.00646
G1 X150.846 Y103.773 E.01029
G1 X150.721 Y103.787 E.00392
G1 X132.279 Y103.787 E.57826
G1 X132.012 Y103.721 E.0086
G1 X131.869 Y103.612 E.00565
G1 X131.721 Y103.319 E.01027
G1 X131.713 Y98.779 E.14237
G1 X131.755 Y98.564 E.00686
G1 X131.865 Y98.393 E.00638
G1 X132.121 Y98.235 E.00941
G1 X132.279 Y98.213 E.005
G1 X150.721 Y98.213 E.57826
G1 X150.988 Y98.279 E.0086
G1 X151.131 Y98.388 E.00565
G1 X151.244 Y98.561 E.00646
G1 X151.287 Y98.779 E.00696
G1 X151.285 Y103.234 E.1397
M204 S1000
G1 X150.91 Y103.221 F10800
M204 S800
;TYPE:External perimeter
G1 F1200
G1 X150.858 Y103.351 E.00439
G1 X150.721 Y103.41 E.00466
G1 X132.279 Y103.41 E.57826
G1 X132.142 Y103.351 E.00466
G1 X132.09 Y103.221 E.00439
G1 X132.09 Y98.779 E.1393
G1 X132.141 Y98.65 E.00433
G1 X132.279 Y98.59 E.00471
G1 X150.721 Y98.59 E.57826
G1 X150.858 Y98.649 E.00466
G1 X150.91 Y98.779 E.00439
G1 X150.91 Y103.161 E.13742
M204 S1000
G1 X151.01 Y103.319 F10800
;WIPE_START
G1 F8640
G1 X150.858 Y103.351 E-.04549
G1 X150.721 Y103.41 E-.0343
G1 X147.776 Y103.41 E-.68021
;WIPE_END
G1 E-.04 F2100
G1 Z.6 F720
G1 X124.206 Y92.775 F10800
G1 Z.2 F720
G1 E.8 F2100
M204 S800
;TYPE:Perimeter
G1 F1200
G1 X124.095 Y92.757 E.00353
G1 X123.826 Y92.561 E.01043
G1 X123.722 Y92.323 E.00812
G1 X123.713 Y92.221 E.00321
G1 X123.713 Y82.779 E.29608
G1 X123.791 Y82.492 E.00932
G1 X123.979 Y82.298 E.00847
G1 X124.279 Y82.213 E.00975
G1 X133.721 Y82.213 E.29608
G1 X133.945 Y82.259 E.00717
G1 X134.149 Y82.408 E.0079
G1 X134.279 Y82.685 E.0096
G1 X134.287 Y92.221 E.29901
G1 X134.23 Y92.469 E.00798
G1 X134.093 Y92.648 E.00704
G1 X133.819 Y92.779 E.00953
G1 X133.721 Y92.787 E.00308
G1 X124.265 Y92.785 E.29649
M204 S1000
G1 X124.279 Y92.41 F10800
M204 S800
;TYPE:External perimeter
G1 F1200
G1 X124.128 Y92.335 E.00529
G1 X124.09 Y92.221 E.00374
G1 X124.09 Y82.779 E.29608
G1 X124.142 Y82.649 E.00439
G1 X124.279 Y82.59 E.00466
G1 X133.721 Y82.59 E.29608
G1 X133.864 Y82.655 E.00491
G1 X133.91 Y82.779 E.00413
G1 X133.91 Y92.221 E.29608
G1 X133.845 Y92.364 E.00489
G1 X133.721 Y92.41 E.00415
G1 X124.339 Y92.41 E.29419
M204 S1000
G1 X124.154 Y92.524 F10800
;WIPE_START
G1 F8640
G1 X124.128 Y92.335 E-.0517
G1 X124.09 Y92.221 E-.02753
G1 X124.09 Y89.273 E-.68076
;WIPE_END
G1 E-.04 F2100
G1 Z.6 F720
G1 X128.57 Y108.755 F10800
G1 Z.2 F720
G1 E.8 F2100
M204 S800
;TYPE:Perimeter
G1 F1200
G1 X128.471 Y108.787 E.00326
G1 X112.507 Y108.787 E.50057
G1 X112.183 Y108.686 E.01062
G1 X111.998 Y108.469 E.00895
G1 X111.941 Y108.221 E.00796
G1 X111.941 Y97.279 E.34311
G1 X112.016 Y96.998 E.00911
G1 X112.213 Y96.795 E.00886
G1 X112.409 Y96.721 E.00657
G1 X128.471 Y96.713 E.50364
G1 X128.769 Y96.797 E.00969
G1 X128.957 Y96.989 E.00843
G1 X129.037 Y97.279 E.00941
G1 X129.037 Y108.221 E.34311
G1 X128.985 Y108.459 E.00761
G1 X128.803 Y108.68 E.009
G1 X128.627 Y108.737 E.00577
M204 S1000
G1 X128.471 Y108.41 F10800
M204 S800
;TYPE:External perimeter
G1 F1200
G1 X112.507 Y108.41 E.50057
G1 X112.354 Y108.332 E.00538
G1 X112.318 Y108.221 E.00364
G1 X112.318 Y97.279 E.34311
G1 X112.382 Y97.137 E.00488
G1 X112.507 Y97.09 E.00417
G1 X128.471 Y97.09 E.50057
G1 X128.607 Y97.148 E.00464
G1 X128.66 Y97.279 E.00441
G1 X128.66 Y108.221 E.34311
G1 X128.626 Y108.329 E.00353
G1 X128.525 Y108.382 E.0036
M204 S1000
G1 X128.368 Y108.796 F10800
;WIPE_START
G1 F8640
G1 X125.233 Y108.388 E-.76
;WIPE_END
G1 E-.04 F2100
G1 Z.6 F720
G1 X97.492 Y86.171 F10800
G1 Z.2 F720
G1 E.8 F2100
M204 S800
;TYPE:Perimeter
G1 F1200
G1 X97.475 Y86.005 E.00523
G1 X97.585 Y84.96 E.03294
G1 X97.657 Y84.736 E.00737
G1 X98.183 Y83.827 E.03294
G1 X98.34 Y83.652 E.00737
G1 X99.19 Y83.034 E.03294
G1 X99.405 Y82.939 E.00737
G1 X100.432 Y82.72 E.03294
G1 X100.668 Y82.72 E.00737
G1 X101.695 Y82.939 E.03294
G1 X101.915 Y83.038 E.00754
G1 X102.759 Y83.657 E.03284
G1 X102.975 Y83.948 E.01135
G1 X102.963 Y83.036 E.02858
G1 X103.024 Y82.773 E.00847
G1 X103.431 Y82.472 E.01587
G1 X109.471 Y82.463 E.1894
G1 X109.924 Y82.689 E.01586
G1 X110.037 Y83.029 E.01122
G1 X110.037 Y89.221 E.19417
G1 X109.968 Y89.493 E.00878
G1 X109.765 Y89.705 E.00919
G1 X109.569 Y89.779 E.00657
G1 X104.79 Y89.787 E.14987
;WIDTH:0.420891
G1 X104.611 Y89.758 E.0057
;WIDTH:0.421153
G1 X104.389 Y89.621 E.0082
;WIDTH:0.421909
G1 X103.129 Y88.36 E.0562
;WIDTH:0.456028
G1 X103.05 Y88.27 E.00411
;WIDTH:0.490146
G1 X102.971 Y88.18 E.00445
G1 X102.938 Y87.715 E.01731
G1 X102.49 Y88.236 E.02553
G1 X102.2 Y88.428 E.01296
G1 X102.562 Y88.437 E.01349
G1 X102.681 Y88.47 E.00457
G1 X102.771 Y88.549 E.00446
;WIDTH:0.456027
G1 X102.861 Y88.628 E.00412
;WIDTH:0.421908
G1 X104.121 Y89.889 E.05618
;WIDTH:0.421153
G1 X104.258 Y90.111 E.0082
;WIDTH:0.420891
G1 X104.287 Y90.29 E.0057
;WIDTH:0.419999
G1 X104.287 Y140.972 E1.5891
G1 X104.211 Y141.255 E.00919
M73 P1 R140
M73 Q1 S142
G1 X104.038 Y141.441 E.00797
G1 X103.901 Y141.508 E.00479
G1 X103.086 Y141.527 E.02555
G1 X102.537 Y141.517 E.01722
G1 X102.723 Y141.635 E.00692
G1 X102.91 Y141.827 E.00841
G1 X103.441 Y142.733 E.03292
G1 X103.515 Y142.96 E.00749
G1 X103.625 Y144.005 E.03294
G1 X103.601 Y144.239 E.00737
G1 X103.276 Y145.238 E.03294
G1 X103.158 Y145.442 E.00737
G1 X102.455 Y146.222 E.03294
G1 X102.265 Y146.361 E.00737
G1 X101.305 Y146.788 E.03294
G1 X101.075 Y146.837 E.00737
G1 X100.025 Y146.837 E.03294
G1 X99.795 Y146.788 E.00737
G1 X98.835 Y146.361 E.03294
G1 X98.526 Y146.09 E.01287
G1 X97.942 Y145.442 E.02737
G1 X97.824 Y145.238 E.00737
G1 X97.499 Y144.239 E.03294
G1 X97.475 Y144.005 E.00737
G1 X97.585 Y142.96 E.03294
G1 X97.659 Y142.733 E.00749
G1 X98.19 Y141.827 E.03292
G1 X98.508 Y141.523 E.0138
G1 X97.285 Y141.537 E.03833
G1 X97.083 Y141.502 E.00645
G1 X96.835 Y141.323 E.00957
G1 X96.713 Y140.972 E.01166
G1 X96.713 Y89.721 E1.60693
G1 X96.822 Y89.239 E.01549
G1 X96.968 Y88.985 E.00918
G1 X97.364 Y88.622 E.01685
G1 X97.824 Y88.482 E.01508
G1 X99.065 Y88.463 E.03889
G1 X98.835 Y88.361 E.00789
G1 X98.645 Y88.222 E.00737
G1 X97.942 Y87.442 E.03294
G1 X97.824 Y87.238 E.00737
G1 X97.499 Y86.231 E.0332
M204 S1000
G1 X97.871 Y86.162 F10800
M204 S800
;TYPE:External perimeter
G1 F1200
G1 X97.85 Y86.044 E.00374
G1 X97.96 Y85 E.03294
G1 X97.984 Y84.925 E.00246
G1 X98.509 Y84.015 E.03294
G1 X98.562 Y83.957 E.00246
G1 X99.412 Y83.339 E.03294
G1 X99.483 Y83.308 E.00246
G1 X100.511 Y83.089 E.03294
G1 X100.589 Y83.089 E.00246
G1 X101.617 Y83.308 E.03294
G1 X102.536 Y83.961 E.03536
G1 X102.832 Y84.495 E.01915
;WIDTH:0.429165
G1 X103.041 Y84.975 E.0168
G1 X103.105 Y86.02 E.03362
;WIDTH:0.451035
G1 X102.964 Y86.859 E.02888
;WIDTH:0.469596
G1 X102.927 Y87.095 E.00848
G1 X102.869 Y87.18 E.00364
;WIDTH:0.441475
G1 X102.482 Y87.613 E.01925
;WIDTH:0.419999
G1 X102.112 Y88.016 E.01715
;WIDTH:0.423386
G1 X101.153 Y88.445 E.03324
G1 X101.075 Y88.461 E.0025
;WIDTH:0.42159
G1 X100.025 Y88.461 E.03308
G1 X99.948 Y88.444 E.00248
;WIDTH:0.420946
G1 X98.988 Y88.016 E.03302
;WIDTH:0.419999
G1 X98.21 Y87.174 E.03596
G1 X97.889 Y86.219 E.03159
M204 S1000
G1 X97.755 Y86.135 F10800
;WIPE_START
G1 F8640
G1 X97.85 Y86.044 E-.04132
G1 X97.96 Y85 E-.24257
G1 X97.984 Y84.925 E-.0181
G1 X98.509 Y84.015 E-.24257
G1 X98.562 Y83.957 E-.0181
G1 X99.253 Y83.455 E-.19733
;WIPE_END
G1 E-.04 F2100
G1 Z.6 F720
G1 X103.34 Y83.031 F10800
G1 Z.2 F720
G1 E.8 F2100
M204 S800
G1 F1200
G1 X103.36 Y82.943 E.00282
G1 X103.528 Y82.84 E.00619
G1 X109.471 Y82.84 E.18634
G1 X109.622 Y82.915 E.00529
G1 X109.66 Y83.029 E.00374
G1 X109.66 Y89.221 E.19417
G1 X109.596 Y89.363 E.00488
G1 X109.471 Y89.41 E.00417
G1 X104.79 Y89.41 E.1468
G1 X104.656 Y89.355 E.00453
G1 X103.396 Y88.093 E.05592
G1 X103.341 Y87.952 E.00474
;WIDTH:0.441475
G1 X103.354 Y87.371 E.01925
;WIDTH:0.451035
G1 X103.367 Y86.921 E.01527
G1 X103.47 Y86.141 E.0267
;WIDTH:0.42134
G1 X103.435 Y85.115 E.0323
G1 X103.372 Y84.375 E.02339
;WIDTH:0.419999
G1 X103.356 Y84.191 E.00578
G1 X103.341 Y83.091 E.03449
M204 S1000
;WIPE_START
G1 F8640
G1 X103.36 Y82.943 E-.03441
G1 X103.528 Y82.84 E-.04557
G1 X106.473 Y82.84 E-.68002
;WIPE_END
G1 E-.04 F2100
G1 Z.6 F720
G1 X97.09 Y140.972 F10800
G1 Z.2 F720
G1 E.8 F2100
M204 S800
G1 F1200
G1 X97.09 Y89.721 E1.60693
G1 X97.186 Y89.337 E.01242
G1 X97.502 Y88.985 E.01481
G1 X97.922 Y88.846 E.01387
G1 X98.813 Y88.84 E.02794
;WIDTH:0.420946
G1 X99.864 Y88.84 E.03302
;WIDTH:0.42159
G1 X101.075 Y88.839 E.03815
;WIDTH:0.423386
G1 X102.287 Y88.84 E.03834
;WIDTH:0.419999
G1 X102.53 Y88.853 E.00761
G1 X102.594 Y88.895 E.00241
G1 X103.855 Y90.156 E.05592
G1 X103.91 Y90.29 E.00452
G1 X103.91 Y140.975 E1.5892
G1 X103.849 Y141.11 E.00463
G1 X103.718 Y141.16 E.00441
G1 X102.495 Y141.139 E.03834
;WIDTH:0.421553
G1 X101 Y140.974 E.04736
;WIDTH:0.416781
G1 X100.024 Y140.984 E.03034
;WIDTH:0.419614
G1 X99.505 Y141.047 E.01639
;WIDTH:0.419999
G1 X98.888 Y141.116 E.01947
G1 X98.34 Y141.148 E.01721
G1 X97.281 Y141.16 E.0332
G1 X97.131 Y141.089 E.00521
G1 X97.11 Y141.028 E.00201
M204 S1000
G1 X96.704 Y140.869 F10800
;WIPE_START
G1 F8640
G1 X97.109 Y137.737 E-.76
;WIPE_END
G1 E-.04 F2100
G1 Z.6 F720
G1 X128.857 Y126.619 F10800
G1 Z.2 F720
G1 E.8 F2100
M204 S800
;TYPE:Perimeter
G1 F1200
G1 X128.81 Y126.675 E.0023
G1 X128.569 Y126.779 E.00821
G1 X128.471 Y126.787 E.00308
G1 X112.529 Y126.787 E.49988
G1 X112.286 Y126.733 E.00779
M73 P1 R139
G1 X112.094 Y126.583 E.00764
G1 X111.971 Y126.319 E.00912
